public/img/moods/relaxed.svg

<?xml version="1.0" encoding="UTF-8" standalone="no"?>
<!-- Generator: Adobe Illustrator 16.0.0, SVG Export Plug-In . SVG Version: 6.00 Build 0)  -->
<!DOCTYPE svg  PUBLIC '-//W3C//DTD SVG 1.1//EN'  'http://www.w3.org/Graphics/SVG/1.1/DTD/svg11.dtd'>
<svg id="Capa_1" style="enable-background:new 0 0 478.2 478.2" xmlns="http://www.w3.org/2000/svg" xml:space="preserve" height="512px" viewBox="0 0 478.2 478.2" width="512px" version="1.1" y="0px" x="0px" xmlns:xlink="http://www.w3.org/1999/xlink">
	<path d="m239.1 325.1c57.4 0 86.101-19.1 86.101-19.1s-19.1 57.4-86.1 57.4c-67 0-86.1-57.4-86.1-57.4s28.7 19.1 86.1 19.1zm47.8-133.9h76.5v-19.1h-76.5v19.1zm-95.7-19.1h-76.5v19.1h76.5v-19.1zm287 67c0 132-107.1 239.1-239.1 239.1s-239.1-107.1-239.1-239.1 107.1-239.1 239.1-239.1c131.9 0 239.1 107.1 239.1 239.1zm-19.2 0c0-122.4-97.5-219.9-219.9-219.9s-219.9 97.5-219.9 219.9 97.5 219.9 219.9 219.9 219.9-97.5 219.9-219.9z" fill="#eda868"/>
</svg>

<?xml version="1.0" encoding="iso-8859-1"?>
<!-- Generator: Adobe Illustrator 16.0.0, SVG Export Plug-In . SVG Version: 6.00 Build 0)  -->
<!DOCTYPE svg PUBLIC "-//W3C//DTD SVG 1.1//EN" "http://www.w3.org/Graphics/SVG/1.1/DTD/svg11.dtd">
<svg xmlns="http://www.w3.org/2000/svg" xmlns:xlink="http://www.w3.org/1999/xlink" version="1.1" id="Capa_1" x="0px" y="0px" width="512px" height="512px" viewBox="0 0 478.2 478.2" style="enable-background:new 0 0 478.2 478.2;" xml:space="preserve">
<g>
	<path d="M239.1,325.1c57.4,0,86.101-19.1,86.101-19.1S306.1,363.4,239.1,363.4c-67,0-86.1-57.4-86.1-57.4S181.7,325.1,239.1,325.1z    M286.9,191.2h76.5v-19.1h-76.5V191.2z M191.2,172.1h-76.5v19.1h76.5V172.1z M478.2,239.1C478.2,371.1,371.1,478.2,239.1,478.2   C107.1,478.2,0,371.1,0,239.1C0,107.1,107.1,0,239.1,0C371,0,478.2,107.1,478.2,239.1z M459,239.1C459,116.7,361.5,19.2,239.1,19.2   C116.7,19.2,19.2,116.7,19.2,239.1C19.2,361.5,116.7,459,239.1,459C361.5,459,459,361.5,459,239.1z" fill="#eda868"/>
</g>
<g>
</g>
<g>
</g>
<g>
</g>
<g>
</g>
<g>
</g>
<g>
</g>
<g>
</g>
<g>
</g>
<g>
</g>
<g>
</g>
<g>
</g>
<g>
</g>
<g>
</g>
<g>
</g>
<g>
</g>
</svg>
